www/assets/icons/gpp_maybe.svg

<svg xmlns="http://www.w3.org/2000/svg" width="24" height="24" viewBox="0 0 24 24" fill='currentColor'><path d="M12 2 4 5v6.09c0 5.05 3.41 9.76 8 10.91 4.59-1.15 8-5.86 8-10.91V5zm1 14h-2v-2h2zm0-4h-2V7h2z"/></svg>

<svg width="24" height="24" viewBox="0 0 24 24" xmlns="http://www.w3.org/2000/svg" fill='currentColor'><path d="M12 2L4 5V11.09C4 16.14 7.41 20.85 12 22C16.59 20.85 20 16.14 20 11.09V5L12 2ZM13 16H11V14H13V16ZM13 12H11V7H13V12Z"/></svg>
